dist/images/grace/advantages1.svg

<svg width="127" height="126" viewBox="0 0 127 126" fill="none" xmlns="http://www.w3.org/2000/svg">
<circle cx="63.5" cy="63" r="61.5" stroke="#E2704C" stroke-width="3"/>
<path d="M81.6214 61.6069L88.588 64.7139C89.0907 64.938 89.6684 64.9183 90.1544 64.6601C90.6404 64.4019 90.9803 63.9342 91.0758 63.3922L93.9722 46.9659C94.0678 46.4239 93.9084 45.8683 93.54 45.4594C93.1714 45.0494 92.6312 44.8338 92.0865 44.873L84.4773 45.4099C84.5095 42.2644 82.2613 39.4569 79.0637 38.8932L46.2111 33.1002C42.6528 32.4728 39.2475 34.8573 38.6201 38.4155L36.1374 52.4952C35.5101 56.0535 37.8944 59.4589 41.4528 60.0863L42.0394 60.1897L41.5222 63.1229C41.123 65.3873 42.6404 67.5544 44.9048 67.9536L47.8386 68.4709L47.1475 72.3902C45.2083 72.7127 43.6183 74.0789 42.9758 75.8905H36.5742V70.5292C36.5742 69.5422 35.7741 68.7421 34.7871 68.7421C33.8001 68.7421 33 69.5422 33 70.5292V84.8261C33 85.813 33.8001 86.6132 34.7871 86.6132C35.7741 86.6132 36.5742 85.813 36.5742 84.8261V79.4647H42.9756C43.7134 81.5448 45.6998 83.0389 48.0296 83.0389C50.9858 83.0389 53.3909 80.6339 53.3909 77.6776C53.3909 75.6796 52.2916 73.9348 50.6669 73.0127L51.3583 69.0915L54.291 69.6087C56.5554 70.0079 58.7225 68.4906 59.1217 66.2262L59.6389 63.2929L74.3052 65.879C77.503 66.4429 80.5757 64.5737 81.6214 61.6069ZM83.9299 49.0314L90.055 48.5993L87.9536 60.5173L82.3457 58.0163L83.9299 49.0314ZM77.8566 42.3095L78.443 42.4129C80.0604 42.6982 81.1442 44.246 80.859 45.8634L78.3764 59.9431C78.0912 61.5605 76.5433 62.6443 74.9259 62.3591L74.3394 62.2557L77.8566 42.3095ZM48.0296 79.4649C47.0442 79.4649 46.2425 78.6632 46.2425 77.6777C46.2425 76.6923 47.0442 75.8906 48.0296 75.8906C49.015 75.8906 49.8167 76.6923 49.8167 77.6777C49.8167 78.6632 49.015 79.4649 48.0296 79.4649ZM55.6018 65.6056C55.5447 65.929 55.2352 66.1459 54.9117 66.0888L45.5253 64.4337C45.2018 64.3766 44.985 64.0671 45.042 63.7437L45.5592 60.8104L56.119 62.6723L55.6018 65.6056ZM42.0734 56.5664C40.4559 56.2812 39.3721 54.7334 39.6573 53.1159L42.14 39.0361C42.4252 37.4187 43.9731 36.3349 45.5904 36.6201L74.3367 41.6888L70.8195 61.635L42.0734 56.5664Z" fill="#373737"/>
<path d="M47.214 41.1406C46.242 40.9693 45.3151 41.6182 45.1437 42.5902C44.9722 43.5621 45.6213 44.489 46.5933 44.6605C47.5652 44.8318 48.4921 44.1828 48.6636 43.2109C48.835 42.2389 48.186 41.3119 47.214 41.1406Z" fill="#373737"/>
<path d="M54.254 42.382C53.2821 42.2107 52.3552 42.8597 52.1837 43.8316C52.0123 44.8036 52.6613 45.7305 53.6333 45.9019C54.6052 46.0734 55.5322 45.4243 55.7036 44.4524C55.8751 43.4803 55.226 42.5534 54.254 42.382Z" fill="#373737"/>
<path d="M93.4767 84.6781C92.7789 83.9803 91.6473 83.9803 90.9494 84.6781C87.2428 88.3846 82.3062 90.4258 77.0489 90.4258C71.7916 90.4258 66.855 88.3846 63.1484 84.6781C62.4506 83.9803 61.319 83.9803 60.6211 84.6781C59.9232 85.3759 59.9232 86.5075 60.6211 87.2055C65.0026 91.587 70.8368 94.0001 77.0489 94.0001C83.261 94.0001 89.0951 91.587 93.4767 87.2055C94.1746 86.5075 94.1746 85.3759 93.4767 84.6781Z" fill="#373737"/>
<path d="M65.6758 79.6233C64.9779 80.3211 64.9779 81.4527 65.6758 82.1507C68.8113 85.2862 72.9301 86.8541 77.0488 86.8541C81.1676 86.8541 85.2864 85.2863 88.4219 82.1507C89.1198 81.4529 89.1198 80.3213 88.4219 79.6233C87.7241 78.9255 86.5925 78.9255 85.8945 79.6233C81.0172 84.5008 73.0807 84.5009 68.203 79.6233C67.5052 78.9255 66.3736 78.9255 65.6758 79.6233Z" fill="#373737"/>
<path d="M70.7304 74.5686C70.0326 75.2664 70.0326 76.398 70.7304 77.0959C72.4723 78.8379 74.7606 79.7089 77.0488 79.7089C79.337 79.7089 81.6252 78.8379 83.3672 77.0959C84.0651 76.3981 84.0651 75.2665 83.3672 74.5686C82.6692 73.8707 81.5377 73.8707 80.8398 74.5686C78.7494 76.6589 75.3482 76.6589 73.2577 74.5686C72.5599 73.8708 71.4283 73.8708 70.7304 74.5686Z" fill="#373737"/>
<path d="M77.0488 72.5647C78.0358 72.5647 78.8359 71.7646 78.8359 70.7776C78.8359 69.7906 78.0358 68.9905 77.0488 68.9905C76.0618 68.9905 75.2617 69.7906 75.2617 70.7776C75.2617 71.7646 76.0618 72.5647 77.0488 72.5647Z" fill="#373737"/>
</svg>

<svg width="127" height="126" fill="none" xmlns="http://www.w3.org/2000/svg"><circle cx="63.5" cy="63" r="61.5" stroke="#E2704C" stroke-width="3"/><path d="M81.621 61.607l6.967 3.107a1.787 1.787 0 002.488-1.322l2.896-16.426a1.787 1.787 0 00-1.885-2.093l-7.61.537c.032-3.146-2.216-5.953-5.413-6.517L46.21 33.1a6.56 6.56 0 00-7.59 5.316l-2.484 14.08a6.56 6.56 0 005.316 7.59l.586.104-.517 2.933a4.175 4.175 0 003.383 4.83l2.934.518-.691 3.92a5.377 5.377 0 00-4.172 3.5h-6.402v-5.362a1.787 1.787 0 10-3.574 0v14.297a1.787 1.787 0 003.574 0v-5.361h6.402a5.37 5.37 0 005.054 3.574 5.367 5.367 0 005.36-5.361 5.362 5.362 0 00-2.723-4.665l.691-3.922 2.933.518a4.175 4.175 0 004.83-3.383l.518-2.933 14.666 2.586c3.198.564 6.27-1.305 7.316-4.272zM83.93 49.03l6.125-.432-2.101 11.918-5.608-2.5 1.584-8.986zm-6.073-6.721l.586.103a2.982 2.982 0 012.416 3.45l-2.483 14.08a2.982 2.982 0 01-3.45 2.416l-.587-.103 3.518-19.947zM48.03 79.465a1.79 1.79 0 01-1.788-1.787 1.79 1.79 0 011.788-1.787 1.79 1.79 0 011.787 1.787 1.79 1.79 0 01-1.787 1.787zm7.572-13.86a.596.596 0 01-.69.484l-9.387-1.655a.596.596 0 01-.483-.69l.517-2.934 10.56 1.862-.517 2.934zm-13.529-9.039a2.982 2.982 0 01-2.416-3.45l2.483-14.08a2.982 2.982 0 013.45-2.416l28.747 5.069-3.517 19.946-28.747-5.069z" fill="#373737"/><path d="M47.214 41.14a1.787 1.787 0 10-.62 3.52 1.787 1.787 0 00.62-3.52zm7.04 1.242a1.787 1.787 0 10-.62 3.52 1.787 1.787 0 00.62-3.52zm39.223 42.296a1.787 1.787 0 00-2.528 0c-3.706 3.707-8.643 5.748-13.9 5.748s-10.194-2.041-13.9-5.748a1.787 1.787 0 00-2.528 2.528C65.003 91.587 70.837 94 77.05 94c6.212 0 12.046-2.413 16.428-6.794a1.787 1.787 0 000-2.528z" fill="#373737"/><path d="M65.676 79.623a1.787 1.787 0 000 2.528 16.034 16.034 0 0011.373 4.703c4.119 0 8.237-1.568 11.373-4.703a1.787 1.787 0 00-2.528-2.528c-4.877 4.878-12.813 4.878-17.691 0a1.787 1.787 0 00-2.527 0z" fill="#373737"/><path d="M70.73 74.569a1.787 1.787 0 000 2.527 8.908 8.908 0 006.319 2.613 8.908 8.908 0 006.318-2.613 1.787 1.787 0 10-2.527-2.527 5.368 5.368 0 01-7.582 0 1.787 1.787 0 00-2.528 0zm6.319-2.004a1.787 1.787 0 100-3.574 1.787 1.787 0 000 3.574z" fill="#373737"/></svg>
